humanity-icon-theme/Humanity-Dark/apps/22/gtg-panel.svg

<?xml version="1.0" encoding="UTF-8" standalone="no"?>
<!-- Created with Inkscape (http://www.inkscape.org/) -->

<svg
   xmlns:svg="http://www.w3.org/2000/svg"
   xmlns="http://www.w3.org/2000/svg"
   version="1.1"
   width="22"
   height="22"
   id="svg7698">
  <defs
     id="defs7700" />
  <g
     transform="translate(-1.9998301,-7.999814)"
     id="layer1">
    <path
       d="M 6.2200625,6.1566875 C 5.980625,6.257625 5.76525,6.40375 5.5845,6.5845 5.223,6.946 5,7.446 5,8 l 0,8 c 0,1.108 0.892,2 2,2 l 10,0 c 1.108,0 2,-0.892 2,-2 l 0,-2.3125 -2.03125,2 c -0.0089,0.02153 -0.01939,0.04243 -0.03125,0.0625 l -0.09375,0.09375 c 3.26e-4,0.01041 3.26e-4,0.02084 0,0.03125 -0.04577,0.04044 -0.09903,0.07239 -0.15625,0.09375 -0.01041,3.26e-4 -0.02084,3.26e-4 -0.03125,0 -0.02007,0.01186 -0.04097,0.02231 -0.0625,0.03125 -0.03116,0.0029 -0.06259,0.0029 -0.09375,0 -0.01041,3.26e-4 -0.02084,3.26e-4 -0.03125,0 -0.02081,0.0013 -0.04169,0.0013 -0.0625,0 -0.01041,3.26e-4 -0.02084,3.26e-4 -0.03125,0 -0.04431,-0.01486 -0.08653,-0.03596 -0.125,-0.0625 -0.01041,3.26e-4 -0.02084,3.26e-4 -0.03125,0 -3.26e-4,-0.01041 -3.26e-4,-0.02084 0,-0.03125 -0.01041,3.26e-4 -0.02084,3.26e-4 -0.03125,0 -3.26e-4,-0.01041 -3.26e-4,-0.02084 0,-0.03125 -0.01087,-0.0099 -0.0213,-0.02038 -0.03125,-0.03125 L 16.125,15.8125 c -0.03753,-0.03642 -0.06929,-0.07877 -0.09375,-0.125 l -0.875,-0.84375 c -0.25698,-0.157182 -0.305677,-0.567161 -0.09267,-0.780169 0.213008,-0.213008 0.622987,-0.164311 0.780169,0.09267 L 16.5,14.8125 18.65625,12.65625 c 0.06525,-0.07545 0.153584,-0.130666 0.25,-0.15625 0.03116,-0.0029 0.06259,-0.0029 0.09375,0 l 0,-3.8125 -2.03125,2 c -0.0089,0.02153 -0.01939,0.04243 -0.03125,0.0625 l -0.09375,0.09375 c 3.26e-4,0.01041 3.26e-4,0.02084 0,0.03125 -0.02007,0.01186 -0.04097,0.02231 -0.0625,0.03125 -0.0099,0.01087 -0.02038,0.0213 -0.03125,0.03125 -0.02007,0.01186 -0.04097,0.02231 -0.0625,0.03125 -0.01041,3.26e-4 -0.02084,3.26e-4 -0.03125,0 -0.02007,0.01186 -0.04097,0.02231 -0.0625,0.03125 -0.01041,3.26e-4 -0.02084,3.26e-4 -0.03125,0 -0.06176,0.01179 -0.125743,0.01179 -0.1875,0 -0.01087,-0.0099 -0.0213,-0.02038 -0.03125,-0.03125 -0.02153,-0.0089 -0.04243,-0.01939 -0.0625,-0.03125 -0.01041,3.26e-4 -0.02084,3.26e-4 -0.03125,0 -0.01041,3.26e-4 -0.02084,3.26e-4 -0.03125,0 -3.26e-4,-0.01041 -3.26e-4,-0.02084 0,-0.03125 -0.01041,3.26e-4 -0.02084,3.26e-4 -0.03125,0 -3.26e-4,-0.01041 -3.26e-4,-0.02084 0,-0.03125 -0.01087,-0.0099 -0.0213,-0.02038 -0.03125,-0.03125 L 16.125,10.8125 c -0.03753,-0.03642 -0.06929,-0.07877 -0.09375,-0.125 l -0.875,-0.84375 C 14.89927,9.6865678 14.850573,9.2765891 15.063581,9.0635813 15.276589,8.8505734 15.686568,8.8992705 15.84375,9.15625 L 16.5,9.8125 18.65625,7.65625 C 18.7215,7.580795 18.809834,7.5255839 18.90625,7.5 18.91666,7.4996745 18.93979,7.50985 18.9375,7.5 18.839566,7.078182 18.576209,6.6930016 18.236352,6.4260012 18.066423,6.292501 17.874195,6.1860007 17.666019,6.1128755 L 17,8 7,8 6.2200625,6.1566875 z M 18.9375,7.5 C 18.978476,7.6599994 19,7.826875 19,8 l 0,0.6875 0.34375,-0.34375 C 19.623126,8.0518054 19.339945,7.4636607 18.9375,7.5 z m 0.0625,5 0,1.1875 0.34375,-0.34375 C 19.606545,13.066598 19.381656,12.514598 19,12.5 z M 6,9 7,9 7,10 6,10 6,9 z M 8.84375,9 C 8.864556,8.9987 8.885444,8.9987 8.90625,9 8.937408,8.99707 8.968842,8.99707 9,9 l 4,0 c 0.264156,-0.00374 0.507121,0.2358173 0.507121,0.5 0,0.2641827 -0.242965,0.503736 -0.507121,0.5 L 9,10 C 8.7382006,10.040906 8.4627814,9.8399243 8.4218752,9.578125 8.3809691,9.3163256 8.5819506,9.0409062 8.84375,9 z m 0,2 C 8.864556,10.9987 8.885444,10.9987 8.90625,11 8.937408,10.9971 8.968842,10.9971 9,11 l 4,0 c 0.264156,-0.0037 0.507121,0.235817 0.507121,0.5 0,0.264183 -0.242965,0.503736 -0.507121,0.5 L 9,12 C 8.7382006,12.040906 8.4627814,11.839924 8.4218752,11.578125 8.3809691,11.316326 8.5819506,11.040906 8.84375,11 z M 6,14 l 1,0 0,1 -1,0 0,-1 z m 2.84375,0 C 8.864556,13.9987 8.885444,13.9987 8.90625,14 8.937408,13.9971 8.968842,13.9971 9,14 l 4,0 c 0.264156,-0.0037 0.507121,0.235817 0.507121,0.5 0,0.264183 -0.242965,0.503736 -0.507121,0.5 L 9,15 C 8.7382006,15.040906 8.4627814,14.839924 8.4218752,14.578125 8.3809691,14.316326 8.5819506,14.040906 8.84375,14 z m 0,2 C 8.864556,15.9987 8.885444,15.9987 8.90625,16 8.937408,15.9971 8.968842,15.9971 9,16 l 4,0 c 0.264156,-0.0037 0.507121,0.235817 0.507121,0.5 0,0.264183 -0.242965,0.503736 -0.507121,0.5 L 9,17 C 8.7382006,17.040906 8.4627814,16.839924 8.4218752,16.578125 8.3809691,16.316326 8.5819506,16.040906 8.84375,16 z"
       transform="translate(1,7.000076)"
       id="rect2831"
       style="fill:#969696;fill-opacity:1;stroke:none" />
    <path
       d="m 18.000007,4.4528303 c 1.411132,0 2.54717,1.1360377 2.54717,2.5471697 l 0,10.090569 c 0,1.411132 -1.136038,2.547169 -2.54717,2.547169 l -12.0000072,0 c -1.411132,0 -2.5471697,-1.136037 -2.5471697,-2.547169 L 3.4528301,7 c 0,-1.411132 1.1360377,-2.5471697 2.5471697,-2.5471697"
       transform="translate(1,7.000076)"
       id="rect2821"
       style="fill:none;stroke:#969696;stroke-linecap:round;stroke-opacity:1" />
    <rect
       width="9.0000029"
       height="3"
       rx="1.5000029"
       ry="1"
       x="8.5"
       y="10.500076"
       id="rect3639"
       style="fill:none;stroke:#969696;stroke-opacity:1" />
  </g>
</svg>

<?xml version="1.0" encoding="UTF-8" standalone="no"?>
<!-- Created with Inkscape (http://www.inkscape.org/) -->
<svg id="svg7698" xmlns="http://www.w3.org/2000/svg" height="22" width="22" version="1.1">
 <g id="layer1" transform="translate(-1.9998 -7.9998)">
  <path id="rect2831" style="fill:#969696" d="m6.2201 6.1567c-0.2395 0.1009-0.4549 0.2471-0.6356 0.4278-0.3615 0.3615-0.5845 0.8615-0.5845 1.4155v8c0 1.108 0.892 2 2 2h10c1.108 0 2-0.892 2-2v-2.3125l-2.0312 2c-0.0089 0.02153-0.01939 0.04243-0.03125 0.0625l-0.09375 0.09375c0.000326 0.01041 0.000326 0.02084 0 0.03125-0.04577 0.04044-0.09903 0.07239-0.15625 0.09375-0.01041 0.000326-0.02084 0.000326-0.03125 0-0.02007 0.01186-0.04097 0.02231-0.0625 0.03125-0.03116 0.0029-0.06259 0.0029-0.09375 0-0.01041 0.000326-0.02084 0.000326-0.03125 0-0.02081 0.0013-0.04169 0.0013-0.0625 0-0.01041 0.000326-0.02084 0.000326-0.03125 0-0.04431-0.01486-0.08653-0.03596-0.125-0.0625-0.01041 0.000326-0.02084 0.000326-0.03125 0-0.000326-0.01041-0.000326-0.02084 0-0.03125-0.01041 0.000326-0.02084 0.000326-0.03125 0-0.000326-0.01041-0.000326-0.02084 0-0.03125-0.01087-0.0099-0.0213-0.02038-0.03125-0.03125l-0.031-0.032c-0.03753-0.03642-0.06929-0.07877-0.09375-0.125l-0.875-0.84375c-0.25698-0.15718-0.30568-0.56716-0.09267-0.78017s0.62299-0.16431 0.78017 0.09267l0.656 0.656 2.156-2.156c0.06525-0.07545 0.15358-0.13067 0.25-0.15625 0.03116-0.0029 0.06259-0.0029 0.09375 0v-3.8125l-2.0312 2c-0.0089 0.02153-0.01939 0.04243-0.03125 0.0625l-0.09375 0.09375c0.000326 0.01041 0.000326 0.02084 0 0.03125-0.02007 0.01186-0.04097 0.02231-0.0625 0.03125-0.0099 0.01087-0.02038 0.0213-0.03125 0.03125-0.02007 0.01186-0.04097 0.02231-0.0625 0.03125-0.01041 0.000326-0.02084 0.000326-0.03125 0-0.02007 0.01186-0.04097 0.02231-0.0625 0.03125-0.01041 0.000326-0.02084 0.000326-0.03125 0-0.06176 0.01179-0.12574 0.01179-0.1875 0-0.01087-0.0099-0.0213-0.02038-0.03125-0.03125-0.02153-0.0089-0.04243-0.01939-0.0625-0.03125-0.01041 0.000326-0.02084 0.000326-0.03125 0-0.01041 0.000326-0.02084 0.000326-0.03125 0-0.000326-0.01041-0.000326-0.02084 0-0.03125-0.01041 0.000326-0.02084 0.000326-0.03125 0-0.000326-0.01041-0.000326-0.02084 0-0.03125-0.01087-0.0099-0.0213-0.02038-0.03125-0.03125l-0.031-0.032c-0.03753-0.03642-0.06929-0.07877-0.09375-0.125l-0.875-0.84375c-0.257-0.1566-0.305-0.5666-0.092-0.7796s0.623-0.1643 0.78 0.0926l0.656 0.6563 2.156-2.1563c0.066-0.0754 0.154-0.1306 0.25-0.1562 0.011-0.0003 0.034 0.0098 0.032 0-0.098-0.4218-0.362-0.807-0.702-1.074-0.17-0.1335-0.362-0.24-0.57-0.3131l-0.666 1.8871h-10l-0.7799-1.8433zm12.718 1.3433c0.04 0.16 0.062 0.3269 0.062 0.5v0.6875l0.34375-0.34375c0.279-0.292-0.004-0.8801-0.406-0.8438zm0.0625 5v1.1875l0.34375-0.34375c0.263-0.277 0.038-0.829-0.344-0.844zm-13-3.5h1v1h-1v-1zm2.8438 0c0.0208-0.0013 0.0416-0.0013 0.0624 0 0.0312-0.0029 0.0626-0.0029 0.0938 0h4c0.26416-0.00374 0.50712 0.23582 0.50712 0.5s-0.24296 0.50374-0.50712 0.5h-4c-0.2618 0.041-0.5372-0.1601-0.5781-0.4219s0.1601-0.5372 0.4219-0.5781zm0 2c0.0208-0.001 0.0416-0.001 0.0624 0 0.0312-0.003 0.0626-0.003 0.0938 0h4c0.26416-0.0037 0.50712 0.23582 0.50712 0.5s-0.24296 0.50374-0.50712 0.5h-4c-0.2618 0.041-0.5372-0.16-0.5781-0.422s0.1601-0.537 0.4219-0.578zm-2.8438 3h1v1h-1v-1zm2.8438 0c0.0208-0.001 0.0416-0.001 0.0624 0 0.0312-0.003 0.0626-0.003 0.0938 0h4c0.26416-0.0037 0.50712 0.23582 0.50712 0.5s-0.24296 0.50374-0.50712 0.5h-4c-0.2618 0.041-0.5372-0.16-0.5781-0.422s0.1601-0.537 0.4219-0.578zm0 2c0.0208-0.001 0.0416-0.001 0.0624 0 0.0312-0.003 0.0626-0.003 0.0938 0h4c0.26416-0.0037 0.50712 0.23582 0.50712 0.5s-0.24296 0.50374-0.50712 0.5h-4c-0.2618 0.041-0.5372-0.16-0.5781-0.422s0.1601-0.537 0.4219-0.578z" transform="translate(1 7.0001)"/>
  <path id="rect2821" style="stroke:#969696;stroke-linecap:round;fill:none" d="m18 4.4528c1.4111 0 2.5472 1.136 2.5472 2.5472v10.091c0 1.4111-1.136 2.5472-2.5472 2.5472h-12c-1.4111 0-2.5472-1.136-2.5472-2.5472v-10.091c0-1.4111 1.136-2.5472 2.5472-2.5472" transform="translate(1 7.0001)"/>
  <rect id="rect3639" style="stroke:#969696;fill:none" rx="1.5" ry="1" height="3" width="9" y="10.5" x="8.5"/>
 </g>
</svg>
